src/ImageAssets/TopLeftBubble.svg

<svg width="355px" height="159px" viewBox="0 0 355 159" version="1.1" xmlns="http://www.w3.org/2000/svg" xmlns:xlink="http://www.w3.org/1999/xlink">
    <title>Group 5</title>
    <defs>
        <linearGradient x1="50%" y1="100%" x2="50%" y2="-2.96410775e-15%" id="linearGradient-1">
            <stop stop-color="#3E6E99" stop-opacity="0.5" offset="0%"></stop>
            <stop stop-color="#2A2231" stop-opacity="0" offset="100%"></stop>
        </linearGradient>
        <linearGradient x1="50%" y1="115.259024%" x2="50%" y2="-2.96410775e-15%" id="linearGradient-2">
            <stop stop-color="#2A2231" stop-opacity="0" offset="0%"></stop>
            <stop stop-color="#3E6E99" stop-opacity="0.5" offset="100%"></stop>
        </linearGradient>
        <linearGradient x1="50%" y1="164.972052%" x2="50%" y2="-0.0108412836%" id="linearGradient-3">
            <stop stop-color="#2A2231" stop-opacity="0" offset="0%"></stop>
            <stop stop-color="#3E6E99" stop-opacity="0.7" offset="100%"></stop>
        </linearGradient>
        <linearGradient x1="50%" y1="117.396585%" x2="50%" y2="-0.0108412836%" id="linearGradient-4">
            <stop stop-color="#2A2231" stop-opacity="0" offset="0%"></stop>
            <stop stop-color="#3E6E99" stop-opacity="0.7" offset="100%"></stop>
        </linearGradient>
        <linearGradient x1="50%" y1="100%" x2="50%" y2="-0.0108412836%" id="linearGradient-5">
            <stop stop-color="#2A2231" stop-opacity="0" offset="0%"></stop>
            <stop stop-color="#3E6E99" stop-opacity="0.7" offset="100%"></stop>
        </linearGradient>
    </defs>
    <g id="UI-Design" stroke="none" stroke-width="1" fill="none" fill-rule="evenodd" opacity="0.601981027">
        <g id="Bubbles" transform="translate(0.000000, -11.000000)" fill-rule="nonzero">
            <g id="Group-5" transform="translate(0.000000, 11.000000)">
                <circle id="Oval" fill-opacity="0.46" fill="url(#linearGradient-1)" transform="translate(182.070079, 86.410000) scale(-1, -1) translate(-182.070079, -86.410000) " cx="182.070079" cy="86.41" r="67.42"></circle>
                <path d="M105.070079,48.99 C142.305117,48.99 172.490079,79.1749622 172.490079,116.41 C172.490079,132.002512 167.196868,146.358728 158.309317,157.779778 L51.8308417,157.779778 C42.9432901,146.358728 37.6500792,132.002512 37.6500792,116.41 C37.6500792,79.1749622 67.8350413,48.99 105.070079,48.99 Z" id="Combined-Shape" fill-opacity="0.45" fill="url(#linearGradient-2)"></path>
                <path d="M160.120079,104.76 C185.591452,104.76 206.240079,125.408627 206.240079,150.88 C206.240079,153.224967 206.06507,155.529058 205.727401,157.779926 L114.512757,157.779926 C114.175088,155.529058 114.000079,153.224967 114.000079,150.88 C114.000079,125.408627 134.648707,104.76 160.120079,104.76 Z" id="Combined-Shape" fill-opacity="0.5" fill="url(#linearGradient-3)"></path>
                <path d="M308.120079,80.76 C333.591452,80.76 354.240079,101.408627 354.240079,126.88 C354.240079,138.766479 349.743389,149.602701 342.358321,157.78035 L273.881837,157.78035 C266.496769,149.602701 262.000079,138.766479 262.000079,126.88 C262.000079,101.408627 282.648707,80.76 308.120079,80.76 Z" id="Combined-Shape" fill-opacity="0.45" fill="url(#linearGradient-4)"></path>
                <path d="M14.5000792,0 C58.4067168,0 94.0000792,35.5933624 94.0000792,79.5 C94.0000792,123.406638 58.4067168,159 14.5000792,159 C9.54791707,159 4.70151011,158.547208 4.38760139e-13,157.680767 L4.41424675e-13,1.31923309 C4.70151011,0.452791601 9.54791707,0 14.5000792,0 Z" id="Combined-Shape" fill-opacity="0.45" fill="url(#linearGradient-5)"></path>
            </g>
        </g>
    </g>
</svg>

<svg width="355" height="159" xmlns="http://www.w3.org/2000/svg"><defs><linearGradient x1="50%" y1="100%" x2="50%" y2="0%" id="a"><stop stop-color="#3E6E99" stop-opacity=".5" offset="0%"/><stop stop-color="#2A2231" stop-opacity="0" offset="100%"/></linearGradient><linearGradient x1="50%" y1="115.259%" x2="50%" y2="0%" id="b"><stop stop-color="#2A2231" stop-opacity="0" offset="0%"/><stop stop-color="#3E6E99" stop-opacity=".5" offset="100%"/></linearGradient><linearGradient x1="50%" y1="164.972%" x2="50%" y2="-.011%" id="c"><stop stop-color="#2A2231" stop-opacity="0" offset="0%"/><stop stop-color="#3E6E99" stop-opacity=".7" offset="100%"/></linearGradient><linearGradient x1="50%" y1="117.397%" x2="50%" y2="-.011%" id="d"><stop stop-color="#2A2231" stop-opacity="0" offset="0%"/><stop stop-color="#3E6E99" stop-opacity=".7" offset="100%"/></linearGradient><linearGradient x1="50%" y1="100%" x2="50%" y2="-.011%" id="e"><stop stop-color="#2A2231" stop-opacity="0" offset="0%"/><stop stop-color="#3E6E99" stop-opacity=".7" offset="100%"/></linearGradient></defs><g fill-rule="nonzero" fill="none" opacity=".602"><circle fill-opacity=".46" fill="url(#a)" transform="rotate(180 182.07 86.41)" cx="182.07" cy="86.41" r="67.42"/><path d="M105.07 48.99c37.235 0 67.42 30.185 67.42 67.42 0 15.593-5.293 29.949-14.18 41.37H51.83c-8.887-11.421-14.18-25.777-14.18-41.37 0-37.235 30.185-67.42 67.42-67.42Z" fill-opacity=".45" fill="url(#b)"/><path d="M160.12 104.76c25.471 0 46.12 20.649 46.12 46.12 0 2.345-.175 4.65-.513 6.9h-91.214a46.488 46.488 0 0 1-.513-6.9c0-25.471 20.649-46.12 46.12-46.12Z" fill-opacity=".5" fill="url(#c)"/><path d="M308.12 80.76c25.471 0 46.12 20.649 46.12 46.12 0 11.886-4.497 22.723-11.882 30.9h-68.476c-7.385-8.177-11.882-19.014-11.882-30.9 0-25.471 20.649-46.12 46.12-46.12Z" fill-opacity=".45" fill="url(#d)"/><path d="M14.5 0C58.407 0 94 35.593 94 79.5S58.407 159 14.5 159c-4.952 0-9.798-.453-14.5-1.32V1.32A79.953 79.953 0 0 1 14.5 0Z" fill-opacity=".45" fill="url(#e)"/></g></svg>
